packages/ui-icons/svg/Solid/chat.svg

<svg viewBox="0 0 1920 1920" version="1.1" xmlns="http://www.w3.org/2000/svg">
    <path d="M1242.35294,451.753412 L1242.35294,1468.224 L757.496471,1468.224 L338.823529,1886.89694 L338.823529,1468.224 L0,1468.224 L0,451.753412 L1242.35294,451.753412 Z M1920.03388,0.0338823529 L1920.03388,1016.50447 L1694.15153,1016.50447 L1694.15153,1435.51624 L1355.21506,1096.57976 L1355.21506,338.857412 L677.680941,338.857412 L677.680941,0.0338823529 L1920.03388,0.0338823529 Z M677.76,1016.45929 L338.823529,1016.45929 L338.823529,1129.40047 L677.76,1129.40047 L677.76,1016.45929 Z M903.529412,790.576941 L338.823529,790.576941 L338.823529,903.631059 L903.529412,903.631059 L903.529412,790.576941 Z" stroke="none" stroke-width="1" fill-rule="evenodd"/>
</svg>

<svg viewBox="0 0 1920 1920" version="1.1" xmlns="http://www.w3.org/2000/svg">
    <path d="M0 451.753h1242.353v1016.471H757.496l-418.672 418.673v-418.673H0V451.754zm338.824 451.878h564.705V790.577H338.824V903.63zm0 225.77H677.76v-112.942H338.824V1129.4zM677.68.033h1242.353v1016.47h-225.882v419.012l-338.937-338.936V338.857H677.681V.034z" stroke="none" stroke-width="1" fill-rule="evenodd"/>
</svg>
